src/assets/dark/Loading.svg

<svg width="202" height="202" viewBox="0 0 202 202" fill="none" xmlns="http://www.w3.org/2000/svg">
<circle cx="100.502" cy="100.94" r="100.502" fill="#141244"/>
<path fill-rule="evenodd" clip-rule="evenodd" d="M167.434 165.111L169.234 164.081L167.394 163.121L166.374 161.321L165.404 163.151L163.604 164.181L165.444 165.151L166.474 166.951L167.434 165.111Z" fill="#403D85"/>
<circle cx="100.503" cy="100.94" r="58.903" fill="url(#paint0_linear)" fill-opacity="0.05"/>
<circle cx="100.502" cy="100.94" r="44.848" fill="url(#paint1_linear)"/>
<circle cx="100.504" cy="100.938" r="44.8498" transform="rotate(-15 100.504 100.938)" fill="url(#paint2_linear)"/>
<path d="M100.504 100.937C106.915 124.863 107.045 125.35 112.112 144.259C92.0569 149.633 70.6019 134.593 64.191 110.667C57.7801 86.7414 68.8409 62.9894 88.896 57.6157C94.5222 78.6129 94.0931 77.0114 100.504 100.937Z" fill="url(#paint3_linear)"/>
<path d="M112.112 144.259C126.901 140.296 133.693 117.688 127.282 93.7624C120.871 69.8366 103.685 53.6532 88.8963 57.6158C88.8963 57.6158 88.8963 57.6158 88.8963 57.6158L112.112 144.259Z" fill="#4744A0"/>
<path d="M125.301 33.418C125.781 33.418 125.781 32.668 125.301 32.668C124.811 32.668 124.811 33.418 125.301 33.418Z" fill="#403D85"/>
<path d="M114.211 42.4258C114.691 42.4258 114.691 41.6758 114.211 41.6758C113.731 41.6758 113.731 42.4258 114.211 42.4258Z" fill="#403D85"/>
<path d="M137.081 46.8164C137.561 46.8164 137.561 46.0664 137.081 46.0664C136.601 46.0664 136.601 46.8164 137.081 46.8164Z" fill="#403D85"/>
<path d="M125.991 46.3555C126.471 46.3555 126.471 45.6055 125.991 45.6055C125.511 45.6055 125.511 46.3555 125.991 46.3555Z" fill="#403D85"/>
<path d="M156.721 57.9062C157.201 57.9062 157.201 57.1562 156.721 57.1562C156.231 57.1562 156.231 57.9062 156.721 57.9062Z" fill="#403D85"/>
<path d="M156.481 47.9766C156.961 47.9766 156.961 47.2266 156.481 47.2266C156.001 47.2266 156.001 47.9766 156.481 47.9766Z" fill="#403D85"/>
<path d="M147.471 42.8867C147.951 42.8867 147.951 42.1367 147.471 42.1367C146.991 42.1367 146.991 42.8867 147.471 42.8867Z" fill="#403D85"/>
<path d="M166.421 61.8359C166.901 61.8359 166.901 61.0859 166.421 61.0859C165.941 61.0859 165.931 61.8359 166.421 61.8359Z" fill="#403D85"/>
<path fill-rule="evenodd" clip-rule="evenodd" d="M116.751 32.817L117.661 33.337L116.731 33.817L116.211 34.737L115.721 33.807L114.811 33.277L115.741 32.797L116.261 31.877L116.751 32.817Z" fill="#403D85"/>
<path fill-rule="evenodd" clip-rule="evenodd" d="M163.741 53.137L164.651 53.657L163.721 54.147L163.201 55.057L162.711 54.127L161.801 53.607L162.731 53.117L163.251 52.207L163.741 53.137Z" fill="#403D85"/>
<path fill-rule="evenodd" clip-rule="evenodd" d="M127.461 51.5455L128.381 52.0655L127.441 52.5555L126.921 53.4655L126.431 52.5355L125.521 52.0155L126.451 51.5255L126.971 50.6055L127.461 51.5455Z" fill="#403D85"/>
<path fill-rule="evenodd" clip-rule="evenodd" d="M132.871 22.2267L134.671 23.2567L132.831 24.2167L131.811 26.0167L130.841 24.1867L129.041 23.1567L130.881 22.1867L131.911 20.3867L132.871 22.2267Z" fill="#403D85"/>
<path d="M188.045 101.344C188.525 101.344 188.525 102.094 188.045 102.094C187.555 102.094 187.555 101.344 188.045 101.344Z" fill="#403D85"/>
<path d="M176.955 92.332C177.435 92.332 177.435 93.082 176.955 93.082C176.475 93.082 176.475 92.332 176.955 92.332Z" fill="#403D85"/>
<path d="M188.735 88.4023C189.215 88.4023 189.215 89.1523 188.735 89.1523C188.255 89.1523 188.255 88.4023 188.735 88.4023Z" fill="#403D85"/>
<path fill-rule="evenodd" clip-rule="evenodd" d="M179.495 101.943L180.405 101.423L179.475 100.943L178.955 100.023L178.465 100.953L177.555 101.483L178.485 101.963L179.005 102.883L179.495 101.943Z" fill="#403D85"/>
<path fill-rule="evenodd" clip-rule="evenodd" d="M190.205 83.2123L191.125 82.6923L190.185 82.2023L189.665 81.2923L189.175 82.2223L188.265 82.7423L189.195 83.2323L189.715 84.1523L190.205 83.2123Z" fill="#403D85"/>
<path fill-rule="evenodd" clip-rule="evenodd" d="M195.615 112.533L197.415 111.503L195.575 110.543L194.555 108.743L193.585 110.573L191.785 111.603L193.625 112.573L194.655 114.373L195.615 112.533Z" fill="#403D85"/>
<path d="M45.9959 156.633C46.4759 156.633 46.4759 155.883 45.9959 155.883C45.5059 155.883 45.5059 156.633 45.9959 156.633Z" fill="#403D85"/>
<path d="M34.9059 165.645C35.3859 165.645 35.3859 164.895 34.9059 164.895C34.4259 164.895 34.4259 165.645 34.9059 165.645Z" fill="#403D85"/>
<path d="M57.776 170.033C58.256 170.033 58.256 169.283 57.776 169.283C57.296 169.283 57.296 170.033 57.776 170.033Z" fill="#403D85"/>
<path d="M46.6862 169.574C47.1662 169.574 47.1662 168.824 46.6862 168.824C46.2062 168.824 46.2062 169.574 46.6862 169.574Z" fill="#403D85"/>
<path d="M77.4158 181.123C77.8958 181.123 77.8958 180.373 77.4158 180.373C76.9258 180.373 76.9258 181.123 77.4158 181.123Z" fill="#403D85"/>
<path d="M77.1759 171.193C77.6559 171.193 77.6559 170.443 77.1759 170.443C76.6959 170.443 76.6959 171.193 77.1759 171.193Z" fill="#403D85"/>
<path d="M68.1657 166.104C68.6457 166.104 68.6457 165.354 68.1657 165.354C67.6857 165.354 67.6857 166.104 68.1657 166.104Z" fill="#403D85"/>
<path d="M87.1157 185.055C87.5957 185.055 87.5957 184.305 87.1157 184.305C86.6357 184.305 86.6257 185.055 87.1157 185.055Z" fill="#403D85"/>
<path fill-rule="evenodd" clip-rule="evenodd" d="M37.4459 156.034L38.3559 156.554L37.4259 157.034L36.9059 157.954L36.4159 157.024L35.5059 156.494L36.4359 156.014L36.9559 155.094L37.4459 156.034Z" fill="#403D85"/>
<path fill-rule="evenodd" clip-rule="evenodd" d="M84.4361 176.354L85.3461 176.874L84.4161 177.364L83.8961 178.274L83.4061 177.344L82.4961 176.824L83.4261 176.334L83.9461 175.424L84.4361 176.354Z" fill="#403D85"/>
<path fill-rule="evenodd" clip-rule="evenodd" d="M48.1558 174.764L49.0758 175.284L48.1358 175.774L47.6158 176.684L47.1258 175.754L46.2158 175.234L47.1458 174.744L47.6658 173.824L48.1558 174.764Z" fill="#403D85"/>
<path fill-rule="evenodd" clip-rule="evenodd" d="M53.5658 145.444L55.3658 146.474L53.5258 147.434L52.5058 149.234L51.5358 147.404L49.7358 146.374L51.5758 145.404L52.6058 143.604L53.5658 145.444Z" fill="#403D85"/>
<path fill-rule="evenodd" clip-rule="evenodd" d="M136.993 74.8612C137.63 74.72 138.257 74.5864 138.874 74.4605C144.746 73.2608 149.568 72.7776 153.052 73.0061C154.797 73.1204 156.098 73.407 156.997 73.7968C157.882 74.1805 158.243 74.6002 158.394 74.9359C158.544 75.2717 158.618 75.8203 158.317 76.7369C158.011 77.6678 157.362 78.8305 156.289 80.2105C154.145 82.9673 150.581 86.2506 145.783 89.8437C136.215 97.01 122.097 105.145 105.7 112.51C89.3029 119.875 73.8439 125.026 62.1314 127.418C56.2589 128.618 51.4374 129.101 47.9525 128.873C46.208 128.758 44.9073 128.472 44.0082 128.082C43.1231 127.698 42.7621 127.279 42.6113 126.943C42.4496 126.583 42.3753 125.97 42.7639 124.924C43.1558 123.869 43.956 122.56 45.239 121.02C47.6789 118.09 51.5972 114.638 56.7645 110.9C56.6033 110.189 56.4589 109.471 56.332 108.748C45.1378 116.725 38.9983 123.78 40.7869 127.762C44.1099 135.16 73.5393 129.148 106.519 114.335C139.499 99.5206 163.541 81.5144 160.218 74.1165C158.429 70.1339 149.074 70.0375 135.673 73.1087C136.127 73.6816 136.567 74.266 136.993 74.8612Z" fill="#524DAF"/>
<circle cx="82.0372" cy="122.698" r="6.80772" fill="#FFC46D"/>
<circle cx="170.416" cy="42.0378" r="1.48701" fill="url(#paint4_linear)" fill-opacity="0.05"/>
<circle cx="82.0368" cy="45.0105" r="1.48701" fill="url(#paint5_linear)" fill-opacity="0.05"/>
<circle cx="32.0144" cy="96.319" r="1.48701" fill="#403D85"/>
<circle cx="115.338" cy="187.505" r="1.48701" fill="url(#paint6_linear)" fill-opacity="0.05"/>
<circle cx="179.569" cy="154.708" r="1.48701" fill="url(#paint7_linear)" fill-opacity="0.05"/>
<circle cx="184.349" cy="63.323" r="1.48701" fill="url(#paint8_linear)" fill-opacity="0.05"/>
<circle cx="61.423" cy="20.1745" r="1.48701" fill="url(#paint9_linear)" fill-opacity="0.05"/>
<circle cx="30.5271" cy="82.1413" r="1.48701" fill="#403D85"/>
<circle cx="90.3317" cy="173.001" r="1.48701" fill="url(#paint10_linear)" fill-opacity="0.05"/>
<circle opacity="0.8" cx="98.1779" cy="18.6862" r="1.48701" fill="#403D85"/>
<circle opacity="0.8" cx="59.9362" cy="58.5847" r="1.48701" fill="#403D85"/>
<circle opacity="0.8" cx="18.5876" cy="140.856" r="1.48701" fill="#403D85"/>
<circle opacity="0.8" cx="131.989" cy="161.487" r="1.48701" fill="#403D85"/>
<circle opacity="0.8" cx="10.07" cy="75.8151" r="1.48701" fill="#403D85"/>
<circle opacity="0.8" cx="178.082" cy="129.507" r="1.48701" fill="#403D85"/>
<circle opacity="0.8" cx="57.6483" cy="177.534" r="0.686385" fill="#403D85"/>
<circle opacity="0.8" cx="140.235" cy="184.368" r="0.686385" fill="#403D85"/>
<circle opacity="0.8" cx="189.941" cy="75.0145" r="0.686385" fill="#403D85"/>
<circle opacity="0.8" cx="126.152" cy="10.1903" r="0.686385" fill="#403D85"/>
<circle opacity="0.8" cx="35.2323" cy="33.159" r="0.686385" fill="#403D85"/>
<circle opacity="0.8" cx="12.243" cy="114.374" r="0.686385" fill="#403D85"/>
<circle opacity="0.8" cx="98.3993" cy="196.181" r="0.686385" fill="#403D85"/>
<defs>
<linearGradient id="paint0_linear" x1="100.503" y1="159.843" x2="100.503" y2="42.0371" gradientUnits="userSpaceOnUse">
<stop offset="0.000490735" stop-color="#6050B0"/>
<stop offset="1" stop-color="#7B4FEB"/>
</linearGradient>
<linearGradient id="paint1_linear" x1="60.3155" y1="145.79" x2="239.453" y2="26.7497" gradientUnits="userSpaceOnUse">
<stop stop-color="#211E74"/>
<stop offset="1" stop-color="#7C78DC"/>
</linearGradient>
<linearGradient id="paint2_linear" x1="60.3159" y1="145.79" x2="239.46" y2="26.7451" gradientUnits="userSpaceOnUse">
<stop stop-color="#211E74"/>
<stop offset="1" stop-color="#7C78DC"/>
</linearGradient>
<linearGradient id="paint3_linear" x1="53.503" y1="237.709" x2="292.865" y2="86.6481" gradientUnits="userSpaceOnUse">
<stop stop-color="#211E74"/>
<stop offset="1" stop-color="#7C78DC"/>
</linearGradient>
<linearGradient id="paint4_linear" x1="170.416" y1="43.5248" x2="170.416" y2="40.5508" gradientUnits="userSpaceOnUse">
<stop offset="0.000490735" stop-color="#6050B0"/>
<stop offset="1" stop-color="#351C75"/>
</linearGradient>
<linearGradient id="paint5_linear" x1="82.0368" y1="46.4974" x2="82.0368" y2="43.5234" gradientUnits="userSpaceOnUse">
<stop offset="0.000490735" stop-color="#6050B0"/>
<stop offset="1" stop-color="#351C75"/>
</linearGradient>
<linearGradient id="paint6_linear" x1="115.338" y1="188.992" x2="115.338" y2="186.018" gradientUnits="userSpaceOnUse">
<stop offset="0.000490735" stop-color="#6050B0"/>
<stop offset="1" stop-color="#351C75"/>
</linearGradient>
<linearGradient id="paint7_linear" x1="179.569" y1="156.195" x2="179.569" y2="153.221" gradientUnits="userSpaceOnUse">
<stop offset="0.000490735" stop-color="#6050B0"/>
<stop offset="1" stop-color="#351C75"/>
</linearGradient>
<linearGradient id="paint8_linear" x1="184.349" y1="64.8099" x2="184.349" y2="61.8359" gradientUnits="userSpaceOnUse">
<stop offset="0.000490735" stop-color="#6050B0"/>
<stop offset="1" stop-color="#351C75"/>
</linearGradient>
<linearGradient id="paint9_linear" x1="61.4231" y1="21.6615" x2="61.4231" y2="18.6875" gradientUnits="userSpaceOnUse">
<stop offset="0.000490735" stop-color="#6050B0"/>
<stop offset="1" stop-color="#351C75"/>
</linearGradient>
<linearGradient id="paint10_linear" x1="90.3318" y1="174.488" x2="90.3318" y2="171.514" gradientUnits="userSpaceOnUse">
<stop offset="0.000490735" stop-color="#6050B0"/>
<stop offset="1" stop-color="#351C75"/>
</linearGradient>
</defs>
</svg>

<svg width="202" height="202" fill="none" xmlns="http://www.w3.org/2000/svg"><circle cx="100.502" cy="100.94" r="100.502" fill="#141244"/><path fill-rule="evenodd" clip-rule="evenodd" d="M167.434 165.111l1.8-1.03-1.84-.96-1.02-1.8-.97 1.83-1.8 1.03 1.84.97 1.03 1.8.96-1.84z" fill="#403D85"/><circle cx="100.503" cy="100.94" r="58.903" fill="url(#paint0_linear)" fill-opacity=".05"/><circle cx="100.502" cy="100.94" r="44.848" fill="url(#paint1_linear)"/><circle cx="100.504" cy="100.938" r="44.85" transform="rotate(-15 100.504 100.938)" fill="url(#paint2_linear)"/><path d="M100.504 100.937l11.608 43.322c-20.055 5.374-41.51-9.666-47.921-33.592-6.41-23.926 4.65-47.678 24.705-53.051l11.608 43.321z" fill="url(#paint3_linear)"/><path d="M112.112 144.259c14.789-3.963 21.581-26.571 15.17-50.497-6.411-23.925-23.597-40.109-38.386-36.146l23.216 86.643z" fill="#4744A0"/><path d="M125.301 33.418c.48 0 .48-.75 0-.75-.49 0-.49.75 0 .75zM114.211 42.426c.48 0 .48-.75 0-.75s-.48.75 0 .75zM137.081 46.816c.48 0 .48-.75 0-.75s-.48.75 0 .75zM125.991 46.355c.48 0 .48-.75 0-.75s-.48.75 0 .75zM156.721 57.906c.48 0 .48-.75 0-.75-.49 0-.49.75 0 .75zM156.481 47.977c.48 0 .48-.75 0-.75s-.48.75 0 .75zM147.471 42.887c.48 0 .48-.75 0-.75s-.48.75 0 .75zM166.421 61.836c.48 0 .48-.75 0-.75s-.49.75 0 .75z" fill="#403D85"/><path fill-rule="evenodd" clip-rule="evenodd" d="M116.751 32.817l.91.52-.93.48-.52.92-.49-.93-.91-.53.93-.48.52-.92.49.94zM163.741 53.137l.91.52-.93.49-.52.91-.49-.93-.91-.52.93-.49.52-.91.49.93zM127.461 51.545l.92.52-.94.49-.52.91-.49-.93-.91-.52.93-.49.52-.92.49.94zM132.871 22.227l1.8 1.03-1.84.96-1.02 1.8-.97-1.83-1.8-1.03 1.84-.97 1.03-1.8.96 1.84z" fill="#403D85"/><path d="M188.045 101.344c.48 0 .48.75 0 .75-.49 0-.49-.75 0-.75zM176.955 92.332c.48 0 .48.75 0 .75s-.48-.75 0-.75zM188.735 88.402c.48 0 .48.75 0 .75s-.48-.75 0-.75z" fill="#403D85"/><path fill-rule="evenodd" clip-rule="evenodd" d="M179.495 101.943l.91-.52-.93-.48-.52-.92-.49.93-.91.53.93.48.52.92.49-.94zM190.205 83.212l.92-.52-.94-.49-.52-.91-.49.93-.91.52.93.49.52.92.49-.94zM195.615 112.533l1.8-1.03-1.84-.96-1.02-1.8-.97 1.83-1.8 1.03 1.84.97 1.03 1.8.96-1.84z" fill="#403D85"/><path d="M45.996 156.633c.48 0 .48-.75 0-.75-.49 0-.49.75 0 .75zM34.906 165.645c.48 0 .48-.75 0-.75s-.48.75 0 .75zM57.776 170.033c.48 0 .48-.75 0-.75s-.48.75 0 .75zM46.686 169.574c.48 0 .48-.75 0-.75s-.48.75 0 .75zM77.416 181.123c.48 0 .48-.75 0-.75-.49 0-.49.75 0 .75zM77.176 171.193c.48 0 .48-.75 0-.75s-.48.75 0 .75zM68.166 166.104c.48 0 .48-.75 0-.75s-.48.75 0 .75zM87.116 185.055c.48 0 .48-.75 0-.75s-.49.75 0 .75z" fill="#403D85"/><path fill-rule="evenodd" clip-rule="evenodd" d="M37.446 156.034l.91.52-.93.48-.52.92-.49-.93-.91-.53.93-.48.52-.92.49.94zM84.436 176.354l.91.52-.93.49-.52.91-.49-.93-.91-.52.93-.49.52-.91.49.93zM48.156 174.764l.92.52-.94.49-.52.91-.49-.93-.91-.52.93-.49.52-.92.49.94zM53.566 145.444l1.8 1.03-1.84.96-1.02 1.8-.97-1.83-1.8-1.03 1.84-.97 1.03-1.8.96 1.84z" fill="#403D85"/><path fill-rule="evenodd" clip-rule="evenodd" d="M136.993 74.861a114.18 114.18 0 011.881-.4c5.872-1.2 10.694-1.683 14.178-1.455 1.745.114 3.046.401 3.945.79.885.384 1.246.804 1.397 1.14.15.336.224.884-.077 1.8-.306.932-.955 2.094-2.028 3.474-2.144 2.757-5.708 6.04-10.506 9.634-9.568 7.166-23.686 15.301-40.083 22.666s-31.856 12.516-43.569 14.908c-5.872 1.2-10.694 1.683-14.178 1.455-1.745-.115-3.046-.401-3.945-.791-.885-.384-1.246-.803-1.397-1.139-.161-.36-.236-.973.153-2.019.392-1.055 1.192-2.364 2.475-3.904 2.44-2.93 6.358-6.382 11.526-10.12a44.63 44.63 0 01-.433-2.152c-11.194 7.977-17.334 15.032-15.545 19.014 3.323 7.398 32.752 1.386 65.732-13.427 32.98-14.814 57.022-32.82 53.699-40.218-1.789-3.983-11.144-4.08-24.545-1.008a44.85 44.85 0 011.32 1.752z" fill="#524DAF"/><circle cx="82.037" cy="122.698" r="6.808" fill="#FFC46D"/><circle cx="170.416" cy="42.038" r="1.487" fill="url(#paint4_linear)" fill-opacity=".05"/><circle cx="82.037" cy="45.011" r="1.487" fill="url(#paint5_linear)" fill-opacity=".05"/><circle cx="32.014" cy="96.319" r="1.487" fill="#403D85"/><circle cx="115.338" cy="187.505" r="1.487" fill="url(#paint6_linear)" fill-opacity=".05"/><circle cx="179.569" cy="154.708" r="1.487" fill="url(#paint7_linear)" fill-opacity=".05"/><circle cx="184.349" cy="63.323" r="1.487" fill="url(#paint8_linear)" fill-opacity=".05"/><circle cx="61.423" cy="20.174" r="1.487" fill="url(#paint9_linear)" fill-opacity=".05"/><circle cx="30.527" cy="82.141" r="1.487" fill="#403D85"/><circle cx="90.332" cy="173.001" r="1.487" fill="url(#paint10_linear)" fill-opacity=".05"/><circle opacity=".8" cx="98.178" cy="18.686" r="1.487" fill="#403D85"/><circle opacity=".8" cx="59.936" cy="58.585" r="1.487" fill="#403D85"/><circle opacity=".8" cx="18.588" cy="140.856" r="1.487" fill="#403D85"/><circle opacity=".8" cx="131.989" cy="161.487" r="1.487" fill="#403D85"/><circle opacity=".8" cx="10.07" cy="75.815" r="1.487" fill="#403D85"/><circle opacity=".8" cx="178.082" cy="129.507" r="1.487" fill="#403D85"/><circle opacity=".8" cx="57.648" cy="177.534" r=".686" fill="#403D85"/><circle opacity=".8" cx="140.235" cy="184.368" r=".686" fill="#403D85"/><circle opacity=".8" cx="189.941" cy="75.014" r=".686" fill="#403D85"/><circle opacity=".8" cx="126.152" cy="10.19" r=".686" fill="#403D85"/><circle opacity=".8" cx="35.232" cy="33.159" r=".686" fill="#403D85"/><circle opacity=".8" cx="12.243" cy="114.374" r=".686" fill="#403D85"/><circle opacity=".8" cx="98.399" cy="196.181" r=".686" fill="#403D85"/><defs><linearGradient id="paint0_linear" x1="100.503" y1="159.843" x2="100.503" y2="42.037" gradientUnits="userSpaceOnUse"><stop offset="0" stop-color="#6050B0"/><stop offset="1" stop-color="#7B4FEB"/></linearGradient><linearGradient id="paint1_linear" x1="60.316" y1="145.79" x2="239.453" y2="26.75" gradientUnits="userSpaceOnUse"><stop stop-color="#211E74"/><stop offset="1" stop-color="#7C78DC"/></linearGradient><linearGradient id="paint2_linear" x1="60.316" y1="145.79" x2="239.46" y2="26.745" gradientUnits="userSpaceOnUse"><stop stop-color="#211E74"/><stop offset="1" stop-color="#7C78DC"/></linearGradient><linearGradient id="paint3_linear" x1="53.503" y1="237.709" x2="292.865" y2="86.648" gradientUnits="userSpaceOnUse"><stop stop-color="#211E74"/><stop offset="1" stop-color="#7C78DC"/></linearGradient><linearGradient id="paint4_linear" x1="170.416" y1="43.525" x2="170.416" y2="40.551" gradientUnits="userSpaceOnUse"><stop offset="0" stop-color="#6050B0"/><stop offset="1" stop-color="#351C75"/></linearGradient><linearGradient id="paint5_linear" x1="82.037" y1="46.497" x2="82.037" y2="43.523" gradientUnits="userSpaceOnUse"><stop offset="0" stop-color="#6050B0"/><stop offset="1" stop-color="#351C75"/></linearGradient><linearGradient id="paint6_linear" x1="115.338" y1="188.992" x2="115.338" y2="186.018" gradientUnits="userSpaceOnUse"><stop offset="0" stop-color="#6050B0"/><stop offset="1" stop-color="#351C75"/></linearGradient><linearGradient id="paint7_linear" x1="179.569" y1="156.195" x2="179.569" y2="153.221" gradientUnits="userSpaceOnUse"><stop offset="0" stop-color="#6050B0"/><stop offset="1" stop-color="#351C75"/></linearGradient><linearGradient id="paint8_linear" x1="184.349" y1="64.81" x2="184.349" y2="61.836" gradientUnits="userSpaceOnUse"><stop offset="0" stop-color="#6050B0"/><stop offset="1" stop-color="#351C75"/></linearGradient><linearGradient id="paint9_linear" x1="61.423" y1="21.662" x2="61.423" y2="18.688" gradientUnits="userSpaceOnUse"><stop offset="0" stop-color="#6050B0"/><stop offset="1" stop-color="#351C75"/></linearGradient><linearGradient id="paint10_linear" x1="90.332" y1="174.488" x2="90.332" y2="171.514" gradientUnits="userSpaceOnUse"><stop offset="0" stop-color="#6050B0"/><stop offset="1" stop-color="#351C75"/></linearGradient></defs></svg>
